X:1
T:Title
%%score 1 { 2 | 3 }
L:1/8
Q:1/4=97
M:4/4
K:G
V:1 treble nm="Grand Piano, Soprano"
V:2 bass nm="Choir Pad, Palm Beach, J. L. Moore"
V:3 bass 
V:1
 [DB]>[Dd] [DG]>[DB] [CE]2 [CG]2 | [B,D]4 [DG]2 z2 | [DA]>[DG] [CF]>[B,G] [DA]2 [DB]2 | [DA]6 z2 | %4
w: By~J.~L.~Moore,~1893 * * * * *||||
 [DB]>[Dd] [DG]>[DB] [CE]2 [CG]2 | [B,D]4 [DG]2 z2 | [DF]>[B,G] [CA]>[B,G] [DB]2 [CA]2 | %7
w: |||
 [B,G]6 z2 | [Ec]>[Ec] [Ec]>[Ec] [Ge]2 [Ec]2 | [DB]4 [Dd]2 z2 | [Dd]>[DB] [Dc]>[DA] [DG]2 [DB]2 | %11
w: ||||
 [DA]6 z2 | [DB]>[Dd] [DG]>[DB] [CE]2 [CG]2 | [B,D]4 [DG]2 z2 | [DF]>[B,G] [CA]>[B,G] [DB]2 [DA]2 | %15
w: ||||
 [DG]8 |] %16
w: |
V:2
 G,>B, B,>G, G,2 G,2 | G,4 B,2 z2 | C>B, A,>G, F,2 G,2 | F,6 z2 | G,>B, B,>G, G,2 G,2 | %5
 G,4 B,2 z2 | A,>G, F,>G, G,2 F,2 | G,6 z2 | G,>G, G,>G, G,2 G,2 | G,4 B,2 z2 | %10
 B,>G, A,>F, G,2 G,2 | F,6 z2 | G,>B, B,>G, G,2 G,2 | G,4 B,2 z2 | A,>G, F,>G, G,2 C2 | B,8 |] %16
V:3
 G,,>G,, G,,>G,, C,2 E,2 | z4 G,2 z2 | D,>D, D,>D, D,2 D,2 | D,6 z2 | G,,>G,, G,,>G,, C,2 E,2 | %5
 z4 G,2 z2 | D,>D, D,>D, D,2 D,2 | G,,6 z2 | C,>C, C,>C, C,2 C,2 | z4 G,2 z2 | %10
 G,2 D,>C, B,,2 G,,2 | D,6 z2 | G,,>G,, G,,>G,, C,2 E,2 | z4 G,2 z2 | D,>D, D,>D, D,2 D,2 | G,,8 |] %16

